X:1302
T:Bedfordshire Clanger
M:6/8
L:1/8
C:Taz Tarry
S:Copyright, B.Tarry, 24th. February 1992
R:Morris Jig
K:G
D|G2GB2B|c>Bca2g|f>ed A>Bc|!d>BG F>ED|G2GB2B|c>Bca2g|f>ed A>B^c|d3 d2||!
D|G>Bc d>BG|D>AB c>AF|D>EF A>Bc|d>BG F>ED|!G>Bc d>BG|D>AB c>AF|D>EF A>FD
|G3G2||!
D|G2GB2B|c>Bca2g|f>ed A>Bc|!d>BG F>ED|G2GB2B|c>Bca2g|f>ed D>EF|G3 G2||
W: Note: C Part is played instead of A part to finish
W: (if not finishing on a B)


